P3
16 16
255
9 13 16  9 13 16  9 13 16  9 13 16  9 13 16  9 13 16  9 13 16  9 13 16  9 13 16  9 13 16  9 13 16  245 247 250  245 247 250  9 13 16  9 13 16  9 13 16
9 13 16  57 255 20  57 255 20  57 255 20  57 255 20  57 255 20  57 255 20  57 255 20  57 255 20  57 255 20  9 13 16  245 247 250  245 247 250  245 247 250  9 13 16  9 13 16
9 13 16  57 255 20  57 255 20  57 255 20  57 255 20  57 255 20  57 255 20  57 255 20  57 255 20  57 255 20  9 13 16  245 247 250  245 247 250  245 247 250  9 13 16  9 13 16
9 13 16  57 255 20  57 255 20  9 13 16  9 13 16  9 13 16  9 13 16  9 13 16  9 13 16  9 13 16  245 247 250  245 247 250  245 247 250  245 247 250  9 13 16  9 13 16
9 13 16  57 255 20  57 255 20  9 13 16  9 13 16  9 13 16  9 13 16  9 13 16  9 13 16  9 13 16  245 247 250  245 247 250  245 247 250  245 247 250  9 13 16  9 13 16
9 13 16  57 255 20  57 255 20  57 255 20  57 255 20  57 255 20  57 255 20  57 255 20  9 13 16  9 13 16  9 13 16  9 13 16  245 247 250  245 247 250  9 13 16  9 13 16
9 13 16  57 255 20  57 255 20  57 255 20  57 255 20  57 255 20  57 255 20  57 255 20  9 13 16  9 13 16  9 13 16  9 13 16  245 247 250  245 247 250  9 13 16  9 13 16
9 13 16  57 255 20  57 255 20  9 13 16  9 13 16  9 13 16  9 13 16  9 13 16  9 13 16  9 13 16  9 13 16  245 247 250  245 247 250  9 13 16  9 13 16  9 13 16
9 13 16  57 255 20  57 255 20  9 13 16  9 13 16  9 13 16  9 13 16  9 13 16  9 13 16  9 13 16  245 247 250  245 247 250  245 247 250  9 13 16  9 13 16  9 13 16
9 13 16  57 255 20  57 255 20  57 255 20  57 255 20  57 255 20  57 255 20  57 255 20  57 255 20  9 13 16  245 247 250  245 247 250  245 247 250  9 13 16  9 13 16  9 13 16
9 13 16  57 255 20  57 255 20  57 255 20  57 255 20  57 255 20  57 255 20  57 255 20  57 255 20  9 13 16  245 247 250  245 247 250  9 13 16  9 13 16  9 13 16  9 13 16
9 13 16  57 255 20  57 255 20  9 13 16  9 13 16  9 13 16  9 13 16  9 13 16  9 13 16  9 13 16  245 247 250  245 247 250  9 13 16  9 13 16  9 13 16  9 13 16
9 13 16  57 255 20  57 255 20  9 13 16  9 13 16  9 13 16  9 13 16  9 13 16  9 13 16  245 247 250  245 247 250  9 13 16  9 13 16  9 13 16  9 13 16  9 13 16
9 13 16  57 255 20  57 255 20  57 255 20  57 255 20  57 255 20  57 255 20  57 255 20  57 255 20  245 247 250  245 247 250  9 13 16  9 13 16  9 13 16  9 13 16  9 13 16
9 13 16  57 255 20  57 255 20  57 255 20  57 255 20  57 255 20  57 255 20  57 255 20  57 255 20  245 247 250  9 13 16  9 13 16  9 13 16  9 13 16  9 13 16  9 13 16
9 13 16  9 13 16  9 13 16  9 13 16  9 13 16  9 13 16  9 13 16  9 13 16  9 13 16  9 13 16  9 13 16  9 13 16  9 13 16  9 13 16  9 13 16  9 13 16
